icons/op-gitlab-pipeline-status-failed-16.svg

<svg width="16" height="16" viewBox="0 0 16 16" fill="none" xmlns="http://www.w3.org/2000/svg">

<path fill-rule="evenodd" clip-rule="evenodd" d="M2.34315 2.34315C0.842855 3.84344 0 5.87827 0 8C0 10.1217 0.842855 12.1566 2.34315 13.6569C3.84344 15.1571 5.87827 16 8 16C10.1217 16 12.1566 15.1571 13.6569 13.6569C15.1571 12.1566 16 10.1217 16 8C16 5.87827 15.1571 3.84344 13.6569 2.34315C12.1566 0.842855 10.1217 0 8 0C5.87827 0 3.84344 0.842855 2.34315 2.34315ZM14.3352 5.37589C14.6798 6.20783 14.8571 7.09951 14.8571 8C14.8571 9.81863 14.1347 11.5628 12.8487 12.8487C11.5628 14.1347 9.81863 14.8571 8 14.8571C6.18137 14.8571 4.43723 14.1347 3.15127 12.8487C1.8653 11.5628 1.14286 9.81863 1.14286 8C1.14286 7.09951 1.32022 6.20783 1.66483 5.37589C2.00943 4.54394 2.51452 3.78801 3.15127 3.15127C3.78801 2.51452 4.54394 2.00943 5.37589 1.66483C6.20783 1.32022 7.09951 1.14286 8 1.14286C8.90049 1.14286 9.79217 1.32022 10.6241 1.66483C11.4561 2.00943 12.212 2.51452 12.8487 3.15127C13.4855 3.78801 13.9906 4.54394 14.3352 5.37589Z" fill="black"/>
<path d="M8 6.82171L6.39886 5.22057C6.36772 5.1896 6.33074 5.16512 6.29006 5.14856C6.24938 5.132 6.20582 5.1237 6.1619 5.12412C6.11798 5.12455 6.07459 5.1337 6.03424 5.15104C5.99389 5.16838 5.95739 5.19357 5.92686 5.22514L5.22514 5.92686C5.16248 5.98913 5.12687 6.07358 5.12602 6.16192C5.12516 6.25026 5.15913 6.33538 5.22057 6.39886L6.82057 8L5.22057 9.60114C5.1896 9.63228 5.16512 9.66926 5.14856 9.70994C5.132 9.75062 5.1237 9.79418 5.12412 9.8381C5.12455 9.88202 5.1337 9.92541 5.15104 9.96576C5.16838 10.0061 5.19357 10.0426 5.22514 10.0731L5.92686 10.7749C6.056 10.9051 6.26971 10.9086 6.39886 10.7794L8 9.17943L9.60114 10.7794C9.63228 10.8104 9.66926 10.8349 9.70994 10.8514C9.75062 10.868 9.79418 10.8763 9.8381 10.8759C9.88202 10.8755 9.92541 10.8663 9.96576 10.849C10.0061 10.8316 10.0426 10.8064 10.0731 10.7749L10.7749 10.0731C10.8375 10.0109 10.8731 9.92642 10.874 9.83808C10.8748 9.74974 10.8409 9.66462 10.7794 9.60114L9.17943 8L10.7794 6.39886C10.8104 6.36772 10.8349 6.33074 10.8514 6.29006C10.868 6.24938 10.8763 6.20582 10.8759 6.1619C10.8755 6.11798 10.8663 6.07459 10.849 6.03424C10.8316 5.99389 10.8064 5.95739 10.7749 5.92686L10.0731 5.22514C10.0109 5.16248 9.92642 5.12687 9.83808 5.12602C9.74974 5.12516 9.66462 5.15913 9.60114 5.22057L8 6.82171Z" fill="black"/>


</svg>

<svg xmlns="http://www.w3.org/2000/svg" width="16" height="16" viewBox="0 0 16 16"><path d="M2.343 2.343a8 8 0 1 1 11.314 11.315A8 8 0 0 1 2.343 2.343Zm11.992 3.033a6.846 6.846 0 0 0-3.711-3.711 6.851 6.851 0 0 0-5.248 0 6.862 6.862 0 0 0-3.711 3.711 6.857 6.857 0 1 0 12.67 0Z"/><path d="M8 6.822 6.399 5.221a.332.332 0 0 0-.472.004l-.702.702a.335.335 0 0 0-.004.472L6.821 8l-1.6 1.601a.332.332 0 0 0 .004.472l.702.702c.129.13.343.134.472.004L8 9.179l1.601 1.6a.332.332 0 0 0 .472-.004l.702-.702a.335.335 0 0 0 .004-.472L9.179 8l1.6-1.601a.332.332 0 0 0-.004-.472l-.702-.702a.335.335 0 0 0-.472-.004L8 6.822Z"/></svg>
